X: 14340
T: Galloping Stallion, The
R: jig
M: 6/8
K: Dmajor
|:cde ece|ece ece|agf edc|def fed:|
|:efg gfg|gfg gfg|agf edc|def fed:|

